img/icon-1.svg

<svg xmlns="http://www.w3.org/2000/svg" width="44" height="65" viewBox="0 0 44 65"><g fill="#FFF"><path d="M37.91 30.438v10.869s.105 2.735-2.825 2.735c-3.069 0-3.125-2.735-3.125-2.735v-6.416c0-.24-.336-1.909-2.319-1.909-2.625 0-2.67 1.877-2.67 1.877V54.08s.029 1.863-2.464 1.863C22 55.943 22 53.96 22 53.96V40.016s0-2.945-3.805-2.945c-4.054 0-3.967 3.125-3.967 3.125v3.728s-.121 2.945-4.688 2.945-4.628-4.509-4.628-4.509V29.938C3.168 28.976 0 26.671 0 26.671v29.332S2.988 65 22 65s22-8.695 22-8.695V26.671c-2.938 2.829-6.09 3.767-6.09 3.767z"/><path d="M22 0C1.688 0 0 19.875 0 19.875v3.062C8.438 29.188 22 29 22 29s13.562.188 22-6.062v-3.062C44 19.875 42.312 0 22 0zm0 25c-11.75 0-14.312-2.375-14.312-2.375C13.938 19.75 22 19.875 22 19.875s8.062-.125 14.312 2.75c0 0-2.562 2.375-14.312 2.375zm0-12.375c-9.562 0-17.688 2.938-17.688 2.938C8.875 2.625 22 3.062 22 3.062s13.125-.438 17.688 12.5c0 0-8.126-2.937-17.688-2.937z"/></g></svg>

<svg width="44" height="65" viewBox="0 0 44 65" fill="none" xmlns="http://www.w3.org/2000/svg">
<path d="M37.91 30.438V41.307C37.91 41.307 38.015 44.042 35.085 44.042C32.016 44.042 31.96 41.307 31.96 41.307V34.891C31.96 34.651 31.624 32.982 29.641 32.982C27.016 32.982 26.971 34.859 26.971 34.859V54.08C26.971 54.08 27 55.943 24.507 55.943C22 55.943 22 53.96 22 53.96V40.016C22 40.016 22 37.071 18.195 37.071C14.141 37.071 14.228 40.196 14.228 40.196V43.924C14.228 43.924 14.107 46.869 9.54 46.869C4.973 46.869 4.912 42.36 4.912 42.36V29.938C3.168 28.976 0 26.671 0 26.671V56.003C0 56.003 2.988 65 22 65C41.012 65 44 56.305 44 56.305V26.671C41.062 29.5 37.91 30.438 37.91 30.438Z" fill="white"/>
<path fill-rule="evenodd" clip-rule="evenodd" d="M22 0C1.688 0 0 19.875 0 19.875V22.937C8.438 29.188 22 29 22 29C22 29 35.562 29.188 44 22.938V19.876C44 19.875 42.312 0 22 0ZM22 25C10.25 25 7.688 22.625 7.688 22.625C13.938 19.75 22 19.875 22 19.875C22 19.875 30.062 19.75 36.312 22.625C36.312 22.625 33.75 25 22 25ZM4.312 15.563C4.312 15.563 12.438 12.625 22 12.625C31.562 12.625 39.688 15.562 39.688 15.562C35.125 2.624 22 3.062 22 3.062C22 3.062 8.875 2.625 4.312 15.563Z" fill="white"/>
</svg>
